**kern
*staff3
*tb48
=1-
*clefF4
*k[b-e-]
*M3/4
4r
.
.
.
.
.
.
.
.
.
.
.
4r
.
.
.
.
.
.
.
.
.
.
.
4r
.
.
.
.
.
.
.
.
.
.
.
=2
*^
8r	2.GG\
.	.
.	.
.	.
.	.
.	.
8B-/	.
.	.
.	.
.	.
.	.
.	.
8B-/L	.
.	.
.	.
.	.
.	.
.	.
8B-/J	.
.	.
.	.
.	.
.	.
.	.
8B-/J	.
.	.
.	.
.	.
.	.
.	.
8B-/J	.
.	.
.	.
.	.
.	.
.	.
=3	=3
8r	2GG\
.	.
.	.
.	.
.	.
.	.
(8B-/	.
.	.
.	.
.	.
.	.
.	.
8B-/L	.
.	.
.	.
.	.
.	.
.	.
8B-/	.
.	.
.	.
.	.
.	.
.	.
*v	*v
8GG/) 8B-/
.
.
.
.
.
8FF#/J 8A/J
.
.
.
.
.
=4
8GG\L 8G\L
.
.
.
.
.
8AA\ 8A\
.
.
.
.
.
8BB-\ 8B-\
.
.
.
.
.
8B-\
.
.
.
.
.
8B-\ 8d\
.
.
.
.
.
8B-\J 8d\J
.
.
.
.
.
=5
!!linebreak:original
*^
8r	(2.BB-\
.	.
.	.
.	.
.	.
.	.
8F/L 8B-/L	.
.	.
.	.
.	.
.	.
.	.
8F/J 8B-/J	.
.	.
.	.
.	.
.	.
.	.
8F/J 8B-/J	.
.	.
.	.
.	.
.	.
.	.
8BB-/J 8F/J 8B-/J	.
.	.
.	.
.	.
.	.
.	.
8BBn/J 8F/J 8Bn/J	.
.	.
.	.
.	.
.	.
.	.
*v	*v
=6
8C\L 8G\L 8c\L
.
.
.
.
.
8G\ 8c\
.
.
.
.
.
8G\ 8c\
.
.
.
.
.
8C\ 8A-\ 8d\
.
.
.
.
.
8C\ 8G\ 8c\
.
.
.
.
.
8G\J 8c\J
.
.
.
.
.
=7
8e-\L
.
.
.
.
.
8d\
.
.
.
.
.
8c\
.
.
.
.
.
8B-\
.
.
.
.
.
8An\
.
.
.
.
.
8A\J
.
.
.
.
.
=8
8GG/L 8A/L
.
.
.
.
.
8A/
.
.
.
.
.
8B-/
.
.
.
.
.
*^
8B-/	8G\L)
.	.
.	.
.	.
.	.
.	.
8B-/	8G\
.	.
.	.
.	.
.	.
.	.
8B-/J	8G\J
.	.
.	.
.	.
.	.
.	.
*v	*v
=9
!!linebreak:original
*^
8r	2.BB-\
.	.
.	.
.	.
.	.
.	.
8G/L 8Bn/L	.
.	.
.	.
.	.
.	.
.	.
8G/J 8B/J	.
.	.
.	.
.	.
.	.
.	.
8G/J 8B/J	.
.	.
.	.
.	.
.	.
.	.
8G/J 8B/J	.
.	.
.	.
.	.
.	.
.	.
8G/J 8B/J	.
.	.
.	.
.	.
.	.
.	.
=10	=10
8r	2.C\
.	.
.	.
.	.
.	.
.	.
8c/L 8d/L	.
.	.
.	.
.	.
.	.
.	.
8c/J 8e-/J	.
.	.
.	.
.	.
.	.
.	.
8c/J 8e-/J	.
.	.
.	.
.	.
.	.
.	.
8c/J 8e-/J	.
.	.
.	.
.	.
.	.
.	.
8c/J 8e-/J	.
.	.
.	.
.	.
.	.
.	.
*v	*v
=11
8C\L
.
.
.
.
.
8c\ 8e-\
.
.
.
.
.
8c\ 8e-\
.
.
.
.
.
8c\ 8e-\
.
.
.
.
.
8BB-\
.
.
.
.
.
8B-\J 8d\J
.
.
.
.
.
=12
8AAn\L
.
.
.
.
.
8A\ 8c\
.
.
.
.
.
8A\ 8c\
.
.
.
.
.
8A\ 8c\
.
.
.
.
.
8AA-\
.
.
.
.
.
8A-\J 8c\J
.
.
.
.
.
=13
!!linebreak:original
8GG\L
.
.
.
.
.
8G\ 8c\
.
.
.
.
.
8G\ 8c\
.
.
.
.
.
8G\ 8c\
.
.
.
.
.
8GG\
.
.
.
.
.
8G\J 8c\J
.
.
.
.
.
=14
2FF/ 2F/
.
.
.
.
.
.
.
.
.
.
.
.
.
.
.
.
.
.
.
.
.
.
.
8r
.
.
.
.
.
8FF/ 8F/
.
.
.
.
.
=15
8EE-/L 8E-/L
.
.
.
.
.
8DD/ 8D/
.
.
.
.
.
8EE-/ 8E-/
.
.
.
.
.
8EEn/ 8E-/
.
.
.
.
.
8FF/ 8F/
.
.
.
.
.
8EE/J 8E-/J
.
.
.
.
.
=16
8FF\L 8F\L
.
.
.
.
.
8GG\ 8G\
.
.
.
.
.
8AA-\ 8A-\
.
.
.
.
.
8A-\ 8d-\
.
.
.
.
.
8A-\ 8d-\
.
.
.
.
.
8A-\J 8d-\J
.
.
.
.
.
=17
!!linebreak:original
2A\ 2e-\
.
.
.
.
.
.
.
.
.
.
.
.
.
.
.
.
.
.
.
.
.
.
.
4AA-\ 4A\
.
.
.
.
.
.
.
.
.
.
.
=18
8GG\L 8G\L
.
.
.
.
.
8e-\
.
.
.
.
.
8g\
.
.
.
.
.
8f\
.
.
.
.
.
8e-\
.
.
.
.
.
8d\J
.
.
.
.
.
=19
8G\L 8c\L
.
.
.
.
.
8An\J
.
.
.
.
.
4G\ 4Bn\
.
.
.
.
.
.
.
.
.
.
.
4GG\ 4A\
.
.
.
.
.
.
.
.
.
.
.
=20
8GG\L 8G\L
.
.
.
.
.
8D\
.
.
.
.
.
8G\
.
.
.
.
.
8B-\
.
.
.
.
.
8G\ 8d\
.
.
.
.
.
8B-\J
.
.
.
.
.
=21
2GG/ 2G/
.
.
.
.
.
.
.
.
.
.
.
.
.
.
.
.
.
.
.
.
.
.
.
==
*-
